X:1
T:Bradbury, 87.87 D
T:Bradbury, 87.87 D
T:William Batchelder Bradbury, 1859
T:Public Domain Courtesy of the Cyber Hymnal™
C:William Batchelder Bradbury, 1859
Z:Public Domain
Z:Courtesy of the Cyber Hymnal™
%%score ( 1 2 ) ( 3 4 )
L:1/8
Q:1/4=112
M:4/4
K:D
V:1 treble 
V:2 treble 
V:3 bass 
V:4 bass 
V:1
 F2 F2 [DF][CE][DF][EG] | (A2 d2) ([FA]2 [DF]2) | [CE]2 [DF]2 [EG][GB][FA][EG] | [DF]6 z/ | %4
 [DF]2 [DF]2 [DF][CE][DF][EG] | (A2 d2) ([FA]2 [DF]2) | [CE]2 [DF]2 [EG][GB][FA][EG] | [DF]6 AA | %8
 [GB]2 [Bd]4 [Ac][GB] | [FA]2 [DF]4 [DF][DF] | [CE]2 [GB]2 [FA]2 [EG]2 | [DF]6 [FA][FA] | %12
 [GB]2 [Bd]4 [Ac][GB] | [FA]2 !fermata![Fd]4 D[DE] | [DF]2 [FA]2 [EG]3 [CE] | D8 |] %16
V:2
 D4 x4 | F4 x4 | x8 | x13/2 | x8 | F4 x4 | x8 | x6 F2 | x8 | x8 | x8 | x8 | x8 | x6 D x | x8 | %15
 D8 |] %16
V:3
 [D,A,]2 [D,A,]2 [D,A,][G,A,][F,A,][E,A,] | [D,A,]4 (D2 A,2) | %2
 [A,,A,]2 [A,,A,]2 [A,,A,][A,,A,][A,,A,][A,,A,] | [F,A,]6 z/ | %4
 [D,A,]2 [D,A,]2 [D,A,][G,A,][F,A,][E,A,] | [D,A,]4 (D2 A,2) | %6
 [A,,A,]2 [A,,A,]2 [A,,A,][A,,A,][A,,A,][A,,A,] | [F,A,]6 [D,D][D,D] | [G,D]2 [G,D]4 [G,D][G,D] | %9
 [D,D]2 [D,A,]4 [D,A,][D,A,] | [A,,A,]2 [A,,A,]2 [A,,A,]2 [A,,A,]2 | [D,A,]6 [D,D][D,D] | %12
 [G,D]2 [G,D]4 [G,D][G,D] | [D,D]2 !fermata![D,A,]4 [D,F,][D,G,] | %14
 [D,A,]2 [D,A,]2 [A,,A,]3 [A,,G,] | [D,F,]8 |] %16
V:4
 x8 | x4 D,4 | x8 | x13/2 | x8 | x4 D,4 | x8 | x8 | x8 | x8 | x8 | x8 | x8 | x8 | x8 | x8 |] %16

